X:1
T:[ID 8-12]
T:[ID 8-12]
T:Bezeichnung standardisiert: Franz\"osischer Tanz Franssosischer Tantz.
T:Urheber unbekannt Datum in der hier transkribierten schriftlichen Quelle: 1792
C:Urheber unbekannt
C:Datum in der hier transkribierten schriftlichen Quelle: 1792
L:1/8
M:2/4
K:G
V:1 treble 
V:1
 B/c/ | ddde/g/ | dddc/A/ | BBBA/F/ | GD D | B/c/ | ddde/g/ | dddc/A/ | B(B/G/)A(A/F/) | GG, G, :: %10
 (F/G/) | AAA(B/A/) | c2 A(G/A/) | BBBc/A/ | d2 B(B/c/) | ddd(e/g/) | dd d(c/A/) | BB/G/ AA/F/ | %18
 GG, G, :| %19

